!! Joseph Haydn, String Quartet Opus 50, No. 5 (in F major)
!! Second movement "Poco Adagio"
!! Encoded by Sandra Serafini, 1990.
**kern	**kern	**kern	**kern
!'cello	!viola	!violn2	!violn1
*M3/4	*M3/4	*M3/4	*M3/4
*B-:	*B-:	*B-:	*B-:
=1	=1	=1	=1
2.BB-	{8d	{8f	{2.ff
.	8B-	8d	.
.	8c	8e-	.
.	8d	8f	.
.	8e-	8g	.
.	8d}	8f}	.
=2	=2	=2	=2
{4.F	{8c	{8e-	2ff_
.	8B-	8d	.
.	8A}	8c	.
8E-	{8A	8g	.
8D	8B-	8f	8.ff]
8C}	8A}	8e-}	.
.	.	.	32gg
.	.	.	32aa}
=3	=3	=3	=3
{8BB-	4.B-	{2d	{4.bb-
8AA	.	.	.
8GG	.	.	.
8FF	{8A	.	16ccc
.	.	.	16ddd
8EE-	8G}	8c}	16eee-
.	.	.	16fff
8CC}	8G'	{16ee-	16ggg
.	.	16cc}	16eee-}
=4	=4	=4	=4
{8FF	{8F	{8.b-	{8.ddd
8En	8En}	.	.
.	.	32cc}	32eee-
.	.	32b-	32ddd
8F	8F	8a	8ccc}
8G	8r	8r	8r
8F	4r	4r	4r
8e-}	.	.	.
=5	=5	=5	=5
{8d	{8f	{8b-	4.b-
8c	8e-	8a	.
8B-	8d	8g	.
8A	8c	8f	16.cc
.	.	.	32dd
8G	8B-	8e-	16.ee-
.	.	.	32ff
8F}	8A}	8d}	16.gg
.	.	.	32aa
=6	=6	=6	=6
{8E-	{8G	{8c	16.bb-
.	.	.	32ccc
8D	8F	8B-	16.ddd
.	.	.	32eee-
4C	4E-	4A	8fff
.	.	.	{4e-
4BB-}	4F}	4B-}	.
.	.	.	8d}
=7	=7	=7	=7
{4E-	8G	8c	{24c
.	.	.	24e-
.	.	.	24g
.	8r	8r	24cc
.	.	.	24ee-
.	.	.	24gg}
8F}	{8d	{8f	{4.b-
{8G-	8d-	8en	.
8F}	8dn	8f	.
8F'	8A}	8e-}	16dd
.	.	.	16cc}
=8	=8	=8	=8
8BB-	8B-	{8d	4b-
8r	8r	8f	.
{8d	{8f	8b-	8r
8c	8e-	8a	{8b-'
8B-	8d	8g	8b-'
8A}	8c}	8f}	8b-'}
=9	=9	=9	=9
{8Gn	{8B-	{8en	[{2b-
8F	8A	8d	.
8En	8G	8c	.
8F	8A-	8d-	.
8E	8G	8c	16b-]
.	.	.	32cc
.	.	.	32dd
8C}	8g}	8en}	16cc
.	.	.	16b-}
=10	=10	=10	=10
{8F	8f	{8f	4a
8A	8r	8cc	.
8a	{8cc	8ff	4r
8g	8b-	8een	.
8f	8an	8ddn	8r
8en}	8g}	8cc}	8cc
=11	=11	=11	=11
{8d	{8f	{8bn	{8aa
8en}	8g}	8cc}	8gg}
{8c	{8g	{8een	{8bb-
8d}	8f}	8ff}	8aa}
{8B-	{8g	{8ee	{8ddd
8A}	8a}	8ff}	8ccc}
=12	=12	=12	=12
{8A-	4d	4ff	4bbn
8G}	.	.	.
{8G-	{8en	{4dd-	{4.bb-
8F	8f	.	.
8En	8g}	4cc}	.
8F}	8f	.	8aa}
=13	=13	=13	=13
{8B-	8f'	{8ddn	8gg'
8c	8f'	8cc	8gg'
8d	8f'	8bn	8gg'
8Bn}	8f'	8dd}	8gg'
{8c	{8f	8cc	8gg'
8C}	8en}	{16cc	8gg'
.	.	16b-}	.
=14	=14	=14	=14
8F	8f	8a	24r
.	.	.	24A'
.	.	.	24B-'
8r	8r	8r	24c'
.	.	.	24d'
.	.	.	24en'
4r	4r	4r	24f'
.	.	.	24a'
.	.	.	24b-'
.	.	.	24cc'
.	.	.	24dd'
.	.	.	24een'
4r	4r	4r	24ff'
.	.	.	24aa'
.	.	.	24bb-'
.	.	.	24ccc'
.	.	.	24ddd'
.	.	.	24eeen'
=15	=15	=15	=15
{8A	{8c	{8f	24r
.	.	.	24fff'
.	.	.	24eeen'
8B-	8d	8g	24ddd'
.	.	.	24ccc'
.	.	.	24bb-'
8c	8en	8a	24aa'
.	.	.	24gg'
.	.	.	24ff'
8d	8f	8b-	24een'
.	.	.	24dd'
.	.	.	24cc'
8en	8g	8cc	24b-'
.	.	.	24a'
.	.	.	24g'
8f}	8a}	8dd}	24f'
.	.	.	24en'
.	.	.	24d'
=16	=16	=16	=16
{2g	{2b-	{2een	24c'
.	.	.	24c'
.	.	.	24c'
.	.	.	24c'
.	.	.	24c'
.	.	.	24c'
.	.	.	24c'
.	.	.	24c'
.	.	.	24c'
.	.	.	24c'
.	.	.	24c'
.	.	.	24c'
8a}	8cc}	8ff}	24c'
.	.	.	24c'
.	.	.	24c'
16r	8r	8r	24c'
.	.	.	24f'
16AA	.	.	.
.	.	.	24c#'
=17	=17	=17	=17
4BB-	2.r	2.r	24d'
.	.	.	24b-'
.	.	.	24f#'
.	.	.	24g'
.	.	.	24dd'
.	.	.	24a'
4r	.	.	24b-'
.	.	.	24gg'
.	.	.	24cc#'
.	.	.	24dd'
.	.	.	24bb-'
.	.	.	24ff#'
4r	.	.	24gg'
.	.	.	24ddd'
.	.	.	24ddd'
.	.	.	24ddd'
.	.	.	24bb-'
.	.	.	24gg'
!! page 114
=18	=18	=18	=18
{8c	{8a	{8cc	[2ffn
8d-	8a-	8bn	.
8c	8an	8cc	.
8d-	8a-	8b	.
8c	8an	8cc	8ff]
8C}	8en}	8b-}	{32aa
.	.	.	16gg
.	.	.	32ff}
=19	=19	=19	=19
8F	8f	24a'	24ff'
.	.	24aa'	24cccn'
.	.	24gg'	24bb-'
24r	24r	24ff'	24aa'
24F'	24A'	24ddd'	24fff'
24G'	24B-'	24ccc'	24eeen'
24A'	24c'	24bb-'	24ddd'
24B-'	24d'	24aa'	24ccc'
24c'	24en'	24gg'	24bb-'
24dn'	24f'	24ff'	24aa'
24en'	24g'	24een'	24gg'
24f'	24a'	24dd'	24ff'
24g'	24b-'	24cc'	24een'
24g'	24b-'	24cc'	24ee'
24g'	24b-'	24cc'	24ee'
24g'	24b-'	24cc'	24ee'
24g'	24b-'	24cc'	24ee'
24g'	24b-'	24cc'	24ee'
=20	=20	=20	=20
8f	8a	24cc'	24ff'
.	.	24a'	24cc'
.	.	24g'	24b-'
24r	24r	24f'	24a'
24FF'	24A'	24dd'	24ff'
24GG'	24B-'	24cc'	24een'
24AA'	24C'	24b-'	24dd'
24BB-'	24D'	24a'	24cc'
24C'	24En'	24g'	24b-'
24D'	24F'	24f'	24a'
24En'	24G'	24en'	24g'
24F'	24A'	24d'	24f'
24G'	24B-'	24c'	24en'
24G'	24B-'	24c'	24e'
24G'	24B-'	24c'	24e'
24G'	24B-'	24c'	24e'
24G'	24B-'	24c'	24e'
24G'	24B-'	24c'	24e'
=21	=21	=21	=21
{4G	{4B-	[{4c	{4en
8F}	8A}	8c}]	8f}
8r	8r	8r	8r
4r	4r	4r	4r
=22	=22	=22	=22
2.BB-	{8d	{8f	[{2.ff
.	8B-	8d	.
.	8c	8e-	.
.	8d	8f	.
.	8e-	8g	.
.	8d}	8f}	.
=23	=23	=23	=23
{4.F	{8c	{8e-	2ff_
.	8B-	8d	.
.	8A	8c	.
8E-	8A	8g	.
8D	8B-	8f	8.ff]
8C}	8A}	8e-}	.
.	.	.	32gg
.	.	.	32aa}
=24	=24	=24	=24
{8BB-	[4B-	{2d	{4.bb-
8AA	.	.	.
8GG	8B-]	.	.
8FF	{8A	.	16ccc
.	.	.	16ddd
8EE-	8G}	8c}	16eee-
.	.	.	16fff
8CC}	8G'	{16ee-	16ggg
.	.	16cc}	16eee-}
=25	=25	=25	=25
{8FF	{8F	{8.b-	{8.ddd
8En	8En}	.	.
.	.	32cc	32eee-
.	.	32b-}	32ddd}
8F	8F	8a	8ccc
8G	8r	8r	8r
8F	4r	4r	4r
8e-}	.	.	.
=26	=26	=26	=26
{8d	{8f	{8b-	4.b-
8c	8e-	8a	.
8B-	8d	8g	.
8A	8c	8f	16.cc
.	.	.	32dd
8G	8B-	8e-	16.ee-
.	.	.	32ff
8F}	8A}	8d}	16.gg
.	.	.	32aa
=27	=27	=27	=27
{8E-	{8G	{8c	16.bb-
.	.	.	32ccc
8D	8F	8B-	16.ddd
.	.	.	32eee-
4C	4E-	4A	8fff
.	.	.	{4e-
4BB-}	4F}	4B-}	.
.	.	.	8d}
=28	=28	=28	=28
8E-	8G	8c	{24c
.	.	.	24e-
.	.	.	24g
8r	8r	8r	24cc
.	.	.	24ee-
.	.	.	24gg}
{8F	{8d	{8f	[{4b-
8G-	8d-	8en	.
8F}	8dn	8f	8b-]
8F'	8e-}	8a}	8cc}
=29	=29	=29	=29
{8B-	{8f	{8a-	{2ee-
8c-	8e-	8b--	.
8B-	8f	8a-	.
8c-	8e-	8b--	.
8B-}	8f	4a-}	8dd
8B-'	8d}	.	8ff}
=30	=30	=30	=30
{8Bn	[{2f	{8ddn	{2aa-
8cn	.	8ee-	.
8B	.	8dd	.
8c	.	8ee-	.
8B}	8f}]	8dd}	8gg
8B'	8g'	8dd'	8ff}
=31	=31	=31	=31
{8c	2.g	{8b-	{8een
8d-	.	8cc-	8ff
8c	.	8b-	8ee
8d-	.	8cc-	8ff
8c	.	8b-	8ee
8B-}	.	8ccn}	8gg}
=32	=32	=32	=32
{4An	{8f	{4cc	{8ff
.	8g-	.	8ee-
8B-}	8f	8b-}	8dd
8E-	8e-	{8g	8cc
8D	8Bn	8f	8dd
8C	8c}	8e-}	8ee-}
=33	=33	=33	=33
{8F	{8F	{8d	{4b-
8En	8En	8d-	.
8F}	8F}	8c}	8a}
{8F'	8r	8r	8r
8F'	4r	4r	4r
8F'}	.	.	.
=34	=34	=34	=34
[2.FF	24r	24r	24r
.	24c'	24cc'	24ee-'
.	24d'	24b-'	24dd'
.	24e-'	24a'	24cc'
.	24c'	24cc'	24aa'
.	24d'	24b-'	24gg'
.	24e-'	24a'	24ff'
.	24c'	24ee-'	24ccc'
.	24d'	24ddn'	24bb-'
.	24e-'	24cc'	24aa'
.	24A'	24ccc'	24eee-'
.	24B-'	24bb-'	24ddd'
.	24c'	24aa'	24ccc'
.	24d'	24gg'	24bb-'
.	24e-'	24ff'	24aa'
.	24f'	24ee-'	24gg'
.	24g'	24dd'	24ff'
.	24a'	24cc'	24ee-'
=35	=35	=35	=35
2.FF_	24b-'	24b-'	24dd'
.	24B-'	24dd'	24ff'
.	24c'	24cc'	24ee-'
.	24d'	24b-'	24dd'
.	24B-'	24dd'	24bb-'
.	24c'	24cc'	24aa'
.	24d'	24b-'	24bb-'
.	24B-'	24ff'	24ddd'
.	24c'	24ee-'	24ccc'
.	24d'	24dd'	24bb-'
.	24B-'	24ddd'	24fff'
.	24c'	24ccc'	24eee-'
.	24d'	24bb-'	24ddd'
.	24e-'	24aa'	24ccc'
.	24f'	24gg'	24bb-'
.	24g'	24ff'	24aa'
.	24a'	24ee-'	24gg'
.	24b-'	24dd'	24ff'
!! page 115
=36	=36	=36	=36
2.FF]	24cc'	24cc'	24ee-'
.	24c'	24cc'	24ee-'
.	24d'	24b-'	24dd'
.	24e-'	24a'	24cc'
.	24c'	24cc'	24aa'
.	24d'	24b-'	24gg'
.	24e-'	24a'	24ff'
.	24c'	24ee-'	24ccc'
.	24d'	24dd'	24bb-'
.	24e-'	24cc'	24aa'
.	24A'	24ccc'	24eee-'
.	24B-'	24bb-'	24ddd'
.	24c'	24aa'	24ccc'
.	24d'	24gg'	24bb-'
.	24e-'	24ff'	24aa'
.	24f'	24ee-'	24gg'
.	24g'	24dd'	24ff'
.	24a'	24cc'	24ee-'
=37	=37	=37	=37
24r	24b-'	[2.b-	[{2.dd
24d'	24ff'	.	.
24c'	24ee-'	.	.
24B-'	24dd'	.	.
24A'	24cc'	.	.
24G'	24b-'	.	.
24F'	24a'	.	.
24G'	24b-'	.	.
24E-'	24g'	.	.
24D'	24f'	.	.
24E-'	24g'	.	.
24C'	24e-'	.	.
24BB-'	24d'	.	.
24C'	24e-'	.	.
24AA'	24c'	.	.
24GG'	24B-'	.	.
24AA'	24c'	.	.
24FF'	24A'	.	.
=38	=38	=38	=38
8EE-	8G	8b-]	24dd]
.	.	.	24cc
.	.	.	24ee-
8r	8r	8r	24gg
.	.	.	24ee-
.	.	.	24cc}
{8FF	{8d	{8f	[{4b-
8GG-	8d-	8en	.
8FF}	8dn	8f	8b-]
8FF'	8A}	8e-}	16dd
.	.	.	16cc}
=39	=39	=39	=39
8BB-	8B-	8d	24r
.	.	.	24d'
.	.	.	24e-'
8r	8r	8r	24f'
.	.	.	24g'
.	.	.	24a'
4r	4r	4r	24b-'
.	.	.	24dd'
.	.	.	24ee-'
.	.	.	24ff'
.	.	.	24gg'
.	.	.	24aa'
4r	4r	4r	24bb-'
.	.	.	24ddd'
.	.	.	24eee-'
.	.	.	24fff'
.	.	.	24ggg'
.	.	.	24aaa'
=40	=40	=40	=40
{8d	{8f	{8b-	24r
.	.	.	24bbb-'
.	.	.	24aaa'
8e-	8g	8cc	24ggg'
.	.	.	24fff'
.	.	.	24eee-'
8f	8a	8dd	24ddd'
.	.	.	24ccc'
.	.	.	24bb-'
8g	8b-	8ee-	24aa'
.	.	.	24gg'
.	.	.	24ff'
8a	8cc	8ff	24ee-'
.	.	.	24dd'
.	.	.	24cc'
8b-}	8dd}	8gg}	24b-'
.	.	.	24a'
.	.	.	24g'
=41	=41	=41	=41
{2cc	{2ee-	{2aa	24f'
.	.	.	24f'
.	.	.	24f'
.	.	.	24f'
.	.	.	24f'
.	.	.	24f'
.	.	.	24f'
.	.	.	24f'
.	.	.	24f'
.	.	.	24f'
.	.	.	24f'
.	.	.	24f'
8dd}	8ff}	8bb-}	24f'
.	.	.	24f'
.	.	.	24f'
16r	8r	8r	24f'
.	.	.	24b-'
16D	.	.	.
.	.	.	24f#'
=42	=42	=42	=42
4E-	2.r	2.r	24g'
.	.	.	24ee-'
.	.	.	24bn'
.	.	.	24cc'
.	.	.	24gg'
.	.	.	24dd'
4r	.	.	24ee-'
.	.	.	24b'
.	.	.	24cc'
.	.	.	24f#'
.	.	.	24g'
.	.	.	24b'
4r	.	.	24cc'
.	.	.	24dd'
.	.	.	24ee-'
.	.	.	24gg'
.	.	.	24ee-'
.	.	.	24cc'
=43	=43	=43	=43
{8F	{8d	{8f	[2b-
8G-	8d-	8en	.
8F	8dn	8f	.
8G-	8d-	8e	.
8F}	8dn	8f	8b-]
8F'	8A}	8e-}	{32dd
.	.	.	16cc
.	.	.	32b-}
=44	=44	=44	=44
8BB-	8B-	24d'	24b-'
.	.	24dd'	24ff'
.	.	24cc'	24ee-'
24r	24r	24b-'	24b-'
24BB-'	24D'	24gg'	24bb-'
24C'	24E-'	24ff'	24aa'
24D'	24F'	24ee-'	24gg'
24E-'	24G'	24dd'	24ff'
24F'	24A'	24cc'	24ee-'
24Gn'	24B-'	24b-'	24dd'
24A'	24c'	24a'	24cc'
24B-'	24d'	24g'	24b-'
24c'	24e-'	24f'	24a'
24c'	24e-'	24f'	24a'
24c'	24e-'	24f'	24a'
24c'	24e-'	24f'	24a'
24c'	24e-'	24f'	24a'
24c'	24e-'	24f'	24a'
=45	=45	=45	=45
24B-'	24d'	8f	8b-
24d'	24f'	.	.
24c'	24e-'	.	.
24B-'	24d'	24r	24r
24g'	24b-'	24b-'	24dd'
24f'	24a'	24cc'	24ee-'
24e-'	24g'	24dd'	24ff'
24d'	24f'	24ee-'	24gg'
24c'	24e-'	24ff'	24aa'
24B-'	24d'	24gg'	24bb-'
24A'	24c'	24aa'	24ccc'
24G'	24B-'	24bb-'	24ddd'
24F'	24A'	24ccc'	24eee-'
24F'	24A'	24ccc'	24eee-'
24F'	24A'	24ccc'	24eee-'
24F'	24A'	24ccc'	24eee-'
24F'	24A'	24ccc'	24eee-'
24F'	24A'	24ccc'	24eee-'
=46	=46	=46	=46
8BB-	8B-	8bb-	8ddd
8r	8r	8r	8r
4r	4r	4r	4r
{24F'	{24e-'	{24cc'	{24aa'
24F'	24e-'	24cc'	24aa'
24F'	24e-'	24cc'	24aa'
24F'	24e-'	24cc'	24aa'
24F'	24e-'	24cc'	24aa'
24F'}	24e-'}	24cc'}	24aa'}
=47	=47	=47	=47
[{4BB-	{4e-	{4cc	{4aa
8BB-}]	8d}	8b-}	8bb-}
8r	8r	8r	8r
4r	4r	4r	4r
======	======	======	======
*-	*-	*-	*-
